X:1
T:Title
%%score { ( 1 4 ) | ( 2 3 ) }
L:1/8
Q:1/4=100
M:6/8
K:Ab
V:1 treble nm="Grand Piano"
V:4 treble 
V:2 bass 
V:3 bass 
V:1
 [CE]2 [A,C] [CE]2 [CA] | [Ec]2 [CA] .[CE]3 | B2 B GF[B,DG] | A3 z3 | %4
w: Haldor~Lillenas * * *||||
 [A,CE]2 [E,A,C][K:treble] [CE]2 [CA] | [Ec]2 [CA] [CE]2 [CE] | [A,DF]2 [DFA] [DEG]2 [DEB] | %7
w: |||
 [CEA]6 |[M:1/8] [Ec] |[M:3/4] [Ee]2 [Ee] [Ec]2 [CA] | [DG]6[K:bass][K:treble] | d2 dB AB | %12
w: |||||
[M:5/8] [Ec]-[Ec]- [Ec]3 |[M:1/8] c |[M:3/4] e2 d c2 B | A2 [EG] [DF]2 [Fd] | c2 B F2 G | %17
w: |||||
[M:5/8] A-A- A3 |] %18
w: |
V:2
 [A,,A,]2 [A,,E,] [A,,A,]2 [A,,A,] | [A,,A,]2 [A,,E,] .[A,,A,]3 | z3 .B,3 | z3 .E3 | %4
 A,,2 A,, [A,,A,]2 [A,,A,] | [A,,A,]2 [A,,E,] [A,,A,]2 [A,,A,] | D,2 D, E,2 E, | A,,6 |[M:1/8] A, | %9
[M:3/4] [A,C]2 [A,C] [A,,A,]2 [A,,E,] | [B,,E,]2 B,, B,,2 [E,G,D] | %11
 [E,G,E]2 [E,G,E][G,D] [F,C][E,G,D] |[M:5/8] [A,,A,]2 A,, A,,2 |[M:1/8] [A,E] | %14
[M:3/4] [A,CE]2 [G,B,E] [A,E]2 [E,G,D] | [F,A,C]2 [C,A,] [D,A,]2 [B,,B,] | %16
 [E,A,E]2 [E,G,D] [E,B,D]2 [E,D] |[M:5/8] E,2 z z2 |] %18
V:3
 x6 | x6 | [E,G,D]2 [E,G,D] [E,D]-[E,A,D]E, | A,,6 | x6 | x6 | x6 | x6 |[M:1/8] x |[M:3/4] x6 | %10
 x6 | z2 z .E,3 |[M:5/8] x5 |[M:1/8] x |[M:3/4] x6 | x6 | x6 |[M:5/8] A,,2- [A,,-F,] [A,,E,]2 |] %18
V:4
 x6 | x6 | x6 | [A,C]6 | x3[K:treble] x3 | x6 | x6 | x6 |[M:1/8] x |[M:3/4] x6 | %10
 z2[K:bass] E, E,2[K:treble] E | x6 |[M:5/8] z2 A, A,2 |[M:1/8] x |[M:3/4] x6 | x6 | x6 | %17
[M:5/8] C2 D C2 |] %18

